svg/s/SR.svg

<svg width="16" height="12" viewBox="0 0 16 12" fill="none" xmlns="http://www.w3.org/2000/svg">
<g clip-path="url(#clip0_270_55133)">
<rect width="16" height="12" fill="white"/>
<path fill-rule="evenodd" clip-rule="evenodd" d="M0 8H16V12H0V8Z" fill="#4E8B1D"/>
<path fill-rule="evenodd" clip-rule="evenodd" d="M0 0H16V3H0V0Z" fill="#4E8B1D"/>
<path d="M0 3.25H-0.75V4V8V8.75H0H16H16.75V8V4V3.25H16H0Z" fill="#AF0100" stroke="white" stroke-width="1.5"/>
<path fill-rule="evenodd" clip-rule="evenodd" d="M8.0012 7.24712L6.75408 8L7.03854 6.53083L6 5.4313L7.40624 5.37184L8.0012 4L8.59615 5.37184H10L8.96385 6.53083L9.27579 8L8.0012 7.24712Z" fill="#FECA00"/>
</g>
<defs>
<clipPath id="clip0_270_55133">
<rect width="16" height="12" fill="white"/>
</clipPath>
</defs>
</svg>

<svg width="16" height="12" fill="none" xmlns="http://www.w3.org/2000/svg">
  <mask id="a" maskUnits="userSpaceOnUse" x="0" y="0" width="16" height="12">
    <path fill="#fff" d="M0 0h16v12H0z"/>
  </mask>
  <g mask="url(#a)">
    <path fill-rule="evenodd" clip-rule="evenodd" d="M0 8h16v4H0V8zm0-8h16v3H0V0z" fill="#4E8B1D"/>
    <path d="M0 3.25h-.75v5.5h17.5v-5.5H0z" fill="#AF0100" stroke="#fff" stroke-width="1.5"/>
    <path fill-rule="evenodd" clip-rule="evenodd" d="M8.001 7.247L6.754 8l.285-1.47L6 5.432l1.406-.06L8.001 4l.595 1.372H10L8.964 6.53 9.276 8 8 7.247z" fill="#FECA00"/>
  </g>
</svg>
